X:1
T:Sorry the Day I Was Married
M:3/4
L:1/4
K:G
 A d3/2 A/2| A B =c| B A G| A d3/2 d/2| A B c| B A G| A d3/2 d/2| A B c|\
 B A G| A2 A/2A/2| D E F| G3|

